X: 920
T: Gül Açıl
C: Dede Efendi
O: Turkey
F: http://compmusic.upf.edu/node/140
N: karcigar--kocekce--devrihindi--gul_acil--dede_efendi
N: makam= karcigar
N: form= kocekce
N: usul= devrihindi = 7/4
M: 7/4
L: 1/16
K: C _2/4B _3/4e ^3/4f 
Q: 1/4=60
%%MIDI tuningsystem comma53
c3_1/4B c2d4_7/8e4^f2 g2a2 g3f edc2  | \
w:   | 
d2_7/8e2 ^f2d6 c2=fe d2c_1/4B edcB A4  | 
w:   | 
c3_1/4B c2d4_7/8e4^f2 g2a2 g3f edc2  | \
w:   | 
d2_7/8e2 ^f2d6 c2=fe d2c_1/4B edcB A4  | 
w:   | 
=f4 =e2f3eag fed4c2 _1/4B2c2 A2G2  | \
w:   | 
_1/4Bcd2 _7/8e2g^f edc4d2 e2f2 d6z2  | 
w:   | 
=f4 =e2f3eag fed4c2 _1/4B3c A2G2  | \
w:   | 
_1/4Bcd2 _7/8e2g^f edc4fe d2cB A6z2  | 
w:   | 
c3_1/4B c2d4_7/8e2 ^f2g4a2 f2e2 d4  | \
w:   | 
_7/8e3d c2_1/4B2 c2d2 B2c4G2 A2B2 c4  | 
w:   | 
g3^f g2a4g2 f2_7/8e4d2 _edc_1/4B c4  | \
w:   | 
d4 _1/4B2c2 A2B2 G2A4A2 B2c2 A4  | 
w:   | 
c3_1/4B c2d4_7/8e2 ^f2g4a2 f2e2 d4  | \
w:   | 
_7/8e3d c2_1/4B2 c2d2 B2c4G2 A2B2 c4  | 
w:   | 
g3^f g2a4g2 f2_7/8e4d2 _edc_1/4B c4  | \
w:   | 
d4 _1/4B2c2 A2B2 G2A4A2 B2c2 A4  | 
w:   | 
|


